X: 21842
T: Kirk's
R: hornpipe
M: 4/4
K: Dmajor
(AG)|FGAF D2d2|cdec A2f2|gfed B2 (ed)|c2A2A2 (AG)|
FGAF D2d2|cdec A2f2|gfed Bdce|d2 [F2d2][F2d2]:|
|:(fg)|afdf a2a2|gece g2g2|fedc d2 (ed)|c2A2A2 (fg)|
afdf a2a2|gece g2g2|fedc Bdce|d2 [F2d2][F2d2]:|

